!!!!SEGMENT: pl-wtm--r-2521_hertz-michal--byl-ongi-krol-sedziwy.krn
!!!cenid: 18xx:3094
!!!COM: Hertz, Michał
!!!COM-rismID: pe41023359
!!!CDT: 1844/09/28-~1918
!!!CNT: Polish
!!!OTL: Był ongi król sędziwy
!!!PDT:
!!!AGN:
!!!SMS-siglum: PL-Wtm
!!!SMS-shelfmark: R 2521
!!!SMS-shelfwork: W
!!!SMS-variant:
!!!SMS-altvar:
!!!NIFC-rismSourceID: 1001085538
!!!NIFC-islandoraID:
!!!URL-pdf-islandora:
!!!URL-scan:
!!!ONB-nifc:
!!!OMD: andantino.
!!!AIN: 2 empty
!!!key:
**kern	**kern	**dynam	**kern	**text	**text	**dynam
*part2	*part2	*part2	*part1	*part1	*part1	*part1
*staff3	*staff2	*	*staff1	*staff1	*staff1	*
*Iempty	*Iempty	*	*Iempty	*	*	*
*I"	*I"	*	*I"	*	*	*
*clefF4	*clefG2	*	*clefG2	*	*	*
*k[f#]	*k[f#]	*	*k[f#]	*	*	*
*e:	*e:	*	*e:	*	*	*
*M6/8	*M6/8	*	*M6/8	*	*	*
*2\right	*2\right	*	*2\right	*	*	*
*	*	*	*	*	*	*below
8r	8e'/	mf	8r	.	.	.
=1	=1	=1	=1	=1	=1	=1
8r	([>4.c^/	.	2.r	.	.	.
!	!	!LO:DY:b=2	!	!	!	!
8r	.	p <	.	.	.	.
8AA\ 8D#X 8F#	.	.	.	.	.	.
4.FF#^:\ 4.D#: 4.A:	8.c/L]	.	.	.	.	.
.	16d/K	.	.	.	.	.
.	8c/J)	[	.	.	.	.
=2	=2	=2	=2	=2	=2	=2
!	!	!LO:HP:b=2	!	!	!	!
(16BB\LL	8D#X/ 8A 8B	<	4r	.	.	.
16D#X\	.	.	.	.	.	.
16F#\	8r	.	.	.	.	.
16B\	.	.	.	.	.	.
16d#X\	8r	.	8r	.	.	.
16f#\JJ	.	.	.	.	.	.
8b\)	4r	[[	4r	.	.	.
8r	.	.	.	.	.	.
!	!	!	!	!	!	!LO:DY:rj
8BB/	(>8B/ 8d#X 8g	p	8g/	Es	Był	p
=3	=3	=3	=3	=3	=3	=3
[4.E\	4G/ 4B 4e	.	4e/	war	on-	.
.	8A/ 8B 8f#	.	8f#/	ein	-gi	.
4E\]	4G/ 4B 4e	.	4e/	al-	Król	.
8BB/	8F#/ 8B 8d#X	.	8d#X/	-ter	sę-	.
=4	=4	=4	=4	=4	=4	=4
[4.E\	4.G/ 4.B 4.e	.	4.e/	Kö-	-dzi-	.
4E\]	4G/) 4c	.	4c/	-nig	-wy,	.
8GG/	8G/ 8B 8dn	.	8dn/	sein	miał	.
!!linebreak:original
=5	=5	=5	=5	=5	=5	=5
*	*^	*	*	*	*	*
(8.C/L	[4.e/	4G\ 4c	<	4e/	Herz	ser-	.
16BB/K	.	.	.	.	.	.	.
8AA/J)	.	8A\ 8c	.	8e/	war	-ce	.
4GG/	4B/ 4e]	8ryy	[[	4b\	schwer	zim-	.
.	.	4ryy	.	.	.	.	.
8BB/	8B/ 8d#X 8g	.	> ]]	8g/	sein	-ne,	.
=6	=6	=6	=6	=6	=6	=6	=6
!	!	!	!LO:DY:rj	!	!	!	!
(8.C/L	[4.e/	4G\ 4c	p <	4e/	Haupt	włos	.
16BB/K	.	.	.	.	.	.	.
8AA/J)	.	8A\ 8c	.	8e/	war	miał	.
4GG/	4B/ 4e]	8ryy	[	4b\	grau	si-	.
.	.	4ryy	.	.	.	.	.
8BB/	(>8B/ 8d#X 8g	.	p	8g/	der	-wy	.
*	*v	*v	*	*	*	*	*
=7	=7	=7	=7	=7	=7	=7
[4.E\	4G/ 4B 4e	.	4e/	ar-	bie-	.
.	8A/ 8B 8f#	.	8f#/	-me	-dak	.
4E\]	4G/ 4B 4e	.	4e/	al-	Król	.
8BB/	8F#/ 8B 8d#X	.	8d#X/	-te	sę-	.
=8	=8	=8	=8	=8	=8	=8
*^	*^	*	*	*	*	*
(4.E/	(8.E\L	(4.e/)	8.G\L 8.B	.	(>4.e/	Kö-	-dzi-	.
.	16C\K	.	16G\K 16c	.	.	.	.	.
.	8GG\J)	.	8B\J	<	.	.	.	<
4.AA/)	8ryy	(<8.g/L	4.A\ 4.c	.	8.g/)	.	.	.
.	4ryy	.	.	.	.	.	.	.
.	.	16f#/K	.	.	16f#/	-nig	.	.
.	.	8fn/J))	.	[[	8fn/	er	-wy	[[
*v	*v	*	*	*	*	*	*	*
!!linebreak:original
=9	=9	=9	=9	=9	=9	=9	=9
[>4.BB/	[4.e/	((4.G\ 4.B	.	8.e/	nahm	mło-	.
.	.	.	<	16f#/	ei-	-dziu-	.
.	.	.	.	8g/	-ne	-tją	<
4BB/]	4e/]	4F#\)) 4A	.	4b\	jun-	żo-	.
8BBB/ 8BB	8A/ 8B 8d#X	8ryy	.	8g/	-ge	-nę	.
=10	=10	=10	=10	=10	=10	=10	=10
*	*	*	*^	*	*	*	*
4.EE\ 4.E	(8.G\L 8.B 8.e	4.ryy	.	.	4.e/	Frau.	miał.	.
.	16B\K 16e 16g	.	<	.	.	.	.	[
.	8e\J 8g 8b	.	.	.	.	.	.	.
!	!	!	!	!LO:DY:rj	!	!	!	!
4r	8.g/L 8.b 8.ee	4e\	.	sf	4r	.	.	p
.	16b/K 16ee 16gg	.	[	.	.	.	.	.
8r	8b/J) 8ee	8g\	.	p	8e/	Es	Był	.
*	*	*	*v	*v	*	*	*	*
*	*v	*v	*	*	*	*	*
=11	=11	=11	=11	=11	=11	=11
*	*	*	*	*	*above	*
(4b>\	(>4.dd#X/ [4.ff#	.	4b\	war	gier-	.
8cc#>X\	.	.	8cc#X\	ein	-mek	.
4b>\	8.ee/L 8.ff#]	<	4b\	schö-	zło-	.
.	16gg#X/K	.	.	.	.	.
8a#>X\	8ee/J 8ff#	.	8a#X/	-ner	-to-	.
=12	=12	=12	=12	=12	=12	=12
8.b>\L	4dd#X/ 4ff# 4bb	.	4.b\	Pa-	-wło-	.
16a#>X\K	.	.	.	.	.	.
8g#>X\J	8b/ 8dd#	[	.	.	.	.
4a#>\ 4cc>)	4.ff#/)	>	4.f#/	-ge	-sy	.
8f#>\ 8a#> 8cc>	.	]	.	.	.	.
!!pagebreak:original
=13	=13	=13	=13	=13	=13	=13
!	!	!LO:DY:b=2	!	!	!	!
4.f#\	(8.b\L 8.dd#X 8.gg#X	sf	8.g#X/	blond	jak	.
.	16cc#X\K 16ee 16aa#X	.	16a#X/	war	mo-	.
.	8dd#\J 8ff# 8bb	.	8b\	sein	-tyl	.
!	!	!LO:HP:b=2	!	!	!	!
(16F#\LL	4ee\ 4gg# 4ccc#X	<	4cc#X\	Haupt,	lek-	.
16c#X\	.	.	.	.	.	.
16e>\	.	.	.	.	.	.
16g>\J)	.	.	.	.	.	.
8cc>\J	8ee/) 8gg#	.	8g#/	.	-ki	.
=14	=14	=14	=14	=14	=14	=14
*	*^	*	*	*	*	*
4.f#\	8.aa#X/L 8.ddd#X	4ee\ 4ff#	[ sf	8.dd#X\	leicht	pię-	.
.	16ccc#X/K	.	.	16cc#X\	war	-kny	.
.	8aa#/J	8cc\ 8ee 8ff#	.	8a#X/	sein-	jak	.
!	!	!	!LO:HP:b=2	!	!	!	!
(16F#\LL	4a#X/ 4ee 4gg	8ryy	<	4g#X/	-ſinn,	kwiat	.
16c#X\	.	.	.	.	.	.	.
16e>\	.	4ryy	.	.	.	.	.
16g>\J)	.	.	.	.	.	.	.
8cc>\J	8ee/ 8ff#	.	[[	8f#/	er	za	.
*	*v	*v	*	*	*	*	*
=15	=15	=15	=15	=15	=15	=15
(4b>\	4.dd#X/ [4.ff#	p	4b\	trug	mło-	.
8cc#>X\	.	.	8cc#X\	die	-dą	.
4b>\	8.ee/L 8.ff#]	.	4b\	seid'-	pa-	.
.	16gg#X/K	.	.	.	.	.
8a#>X\)	8ee/J 8ff#	.	8a#X/	-ne	-nią	.
=16	=16	=16	=16	=16	=16	=16
(8.b>\L	(4dd#X/ 4ff# 4bb	<	4.b\	Schlep-	no-	.
16a#>X\K	.	.	.	.	.	.
8an>\J)	8b/ 8dd# 8ff#	.	.	.	.	.
(8.g#X>\L 8.b> 8.dd>	4gg#X/)	.	4g#X/	-pe	-sił	.
16f#>\K 16b> 16ddn>	.	.	.	.	.	.
8e#X>\J)	8b/ 8dd# 8ggn	[	8gn/	der	po-	.
!!linebreak:original
=17	=17	=17	=17	=17	=17	=17
*	*^	*	*	*	*	*
(8.f#>\L	4.b/ 4.dd#X [4.ff#	4.ryy	.	(8.f#\L	jun-	-wło-	.
!	!	!	!LO:HP:t=cresc	!	!	!	!
16d#>X\K	.	.	<	16b\Jk)	.	.	.
8B>\J	.	.	.	8dd#X\	-gen	-kę	.
4F#>\)	4ee/ 4ff#]	8.a/L	.	4ff#\	Kö-	zło-	.
.	.	16g#X/Jk	.	.	.	.	.
8f#>'\	8a/ 8dd#'	8ryy	.	8dd#\	-ni-	-tych	.
*	*v	*v	*	*	*	*	*
=18	=18	=18	=18	=18	=18	=18
!	!	!LO:DY:rj	!	!	!	!
(8.B\L	[4.d#X\ [4.f# [4.b	f	[4.b\	-gin!	szat.	.
16G#X\L	.	<	.	.	.	.
16F#\	.	.	.	.	.	.
16D#X\JJ)	.	.	.	.	.	.
!	!LO:TX:t=P:mixedbeam:problem	!	!	!	!	!
(<8C#X\L	8.d#\L] 8.f#] 8.b]	.	8b\]	.	.	.
16BB\L	.	.	8r	.	.	.
16AA#X\J	16BB</K 16D< 16F#<	[	.	.	.	.
8AAn\J)	8D</J 8F#< 8B<	.	8r	.	.	.
=19	=19	=19	=19	=19	=19	=19
*^	*^	*	*	*	*	*
2.Dn/	4.GG\	8.B/L	4G\	p	2.r	.	.	.
.	.	16B/K	.	<	.	.	.	.
.	.	8d/J	8B\	.	.	.	.	.
.	4.FF#\	(8.f#/L	4.A#X\	.	.	.	.	.
.	.	16e/K	.	.	.	.	.	.
.	.	8d/J	.	[[ f	.	.	.	.
*v	*v	*	*	*	*	*	*	*
=20	=20	=20	=20	=20	=20	=20	=20
8FFn\ 8BB 8D 8G	8.g/L)	8B\ 8d	<	4r	.	.	.
8r	.	8r	.	.	.	.	.
.	16g/K	.	.	.	.	.	.
8r	8b/J	8r	.	8r	.	.	.
4r	(8.dd/L	4r	.	4r	.	.	.
.	16b/K)	.	[	.	.	.	.
!	!	!	!	!	!	!	!LO:DY:rj
*	*	*	*	*	*below	*	*
8BB/	8B/J 8d#X 8g	8ryy	p	8g/	ach	czy	p
*	*v	*v	*	*	*	*	*
!!linebreak:original
=21	=21	=21	=21	=21	=21	=21
!	!	!LO:DY:rj	!	!	!	!
[4.E\	(>8.G/L 8.B 8.e	p	8.e/	kennst	zna-	.
.	16A/K 16B 16f#	.	16f#/	du	-cie	.
.	8B/J 8e 8g	.	8g/	das	pio-	.
4E\]	8.A/L 8.B 8.f#	<	(8.f#/L	al-	sen-	.
.	16G/K 16B 16e	.	16e/Jk)	.	.	.
8BB/	8F#/J) 8B 8d#X	.	8d#X/	-te	-kę	.
=22	=22	=22	=22	=22	=22	=22
[4.E\	(([4.G/ 4.B 4.e	[ >	4.e/	Lied-	sta-	.
4E\]	4G/])) 4c	]	4c/	-chen,	-rą,	.
!	!	!LO:DY:rj	!	!	!	!
8GG/	8G/ 8B 8dn	p	8dn/	es	jej	.
=23	=23	=23	=23	=23	=23	=23
*	*^	*	*	*	*	*
(8.C/L	[4.e/	4G\ 4c	<	4e/	klingt	dźwięk	.
16BB/K	.	.	.	.	.	.	.
8AA/J	.	8A\ 8c	.	8e/	so	się	.
4GG/)	4e/]	4B\	[	4b\	süss	sło-	.
8BB/	8B/ 8d#X 8g	8ryy	> ]	8g/	es	-dko,	.
=24	=24	=24	=24	=24	=24	=24	=24
*	*	*	*	*^	*	*	*
(8.C/L	[4.e/	4G\ 4c	] <	4e/	4ryy	klingt	smę-	.
16BB/K	.	.	.	.	.	.	.	.
8AA/J	.	8A\ 8c	.	8e/	8ryy	so	-tnie	.
4GG/)	4e/]	4B\	[ >	4b/	8b\	trüb	ża-	.
.	.	.	.	.	8b\	.	-li	.
8BB/	8B/ 8d#X 8g	8ryy	]	8g/	8ryy	sie	mu-	.
*	*v	*v	*	*	*	*	*	*
*	*	*	*v	*v	*	*	*
!!linebreak:original
=25	=25	=25	=25	=25	=25	=25
([4.E\	[4.G/ [>4.B [4.e	.	[>4.e/	muss-	-sia-	.
4E\]	8.G/L] 8.B] 8.e]	.	(8.e/L]	.	.	.
.	16A/K 16e 16f#	<	16f#/Jk)	.	.	.
8D\	8B/J 8e 8g	.	8g/	-ten	-ło	.
=26	=26	=26	=26	=26	=26	=26
(4.C/)	(((4.c/ 4.e 4.a	.	(4.a/	Bei-	um-	.
4BB/)	4e/))) 4g 4b	[	4b\)	.	.	.
8AA/	8e\ 8a 8cc	<	8cc\	-de	-rzeć	.
=27	=27	=27	=27	=27	=27	=27
2.FF#/	([2.e\ [2.a 2.dd	sf	2.dd\	ster-	dwo-	.
.	.	.	.	.	.	.
.	.	.	.	.	.	.
.	.	<	.	.	.	.
=28	=28	=28	=28	=28	=28	=28
[4.FF#/	4.e\_) 4.a_ [4.cc	.	[4.cc\	-ben!	-je!	.
8.FF#/L]	8.e\L] 8.a] 8.cc]	.	8cc\]	.	.	.
.	.	[	8r	.	.	.
16AA/K	16c\K 16e 16a	.	.	.	.	.
8C/J	8A\J 8e 8f#	.	8r	.	.	.
!!pagebreak:original
=29	=29	=29	=29	=29	=29	=29
[2.D#X\	(>[2.A/ [>2.c 2.g	f	2.r	.	.	.
=30	=30	=30	=30	=30	=30	=30
4.D#\_	4.A/_) 4.c_ [4.f#	>	4r	.	.	.
.	.	.	8r	.	.	.
8D#\]	8A/] 8c] 8f#]	]	4r	.	.	.
8r	8r	.	.	.	.	.
!	!	!LO:DY:rj	!	!	!	!LO:DY:rj
8r	8c/	p	8c/	Sie	za-	p
=31	=31	=31	=31	=31	=31	=31
2.r	[>4.a/	.	[>4.a/	hat-	-nad-	.
.	8.a/L]	<	8.a/]	.	.	.
.	16g/K	.	16g/	-ten	-to	.
.	8f#/J	.	8f#/	sich	się	.
=32	=32	=32	=32	=32	=32	=32
2.r	(4.e/	.	(>4.e/	viel	o-	<
.	8d#X/L	.	8d#X/L)	.	.	[[
.	8c/)	.	8c/J	.	-ni,	.
.	8A'/J	[	8A/	zu	za-	.
!!linebreak:original
=33	=33	=33	=33	=33	=33	=33
*	*^	*	*	*	*	*
!	!	!	!LO:DY:rj	!	!	!	!
4r	[2.cc/	4r	sf	[2.cc\	viel	-nad-	.
8r	.	8r	.	.	.	.	.
4r	.	4r	.	.	.	.	.
!	!	!	!LO:DY:rj	!	!	!	!
8FF#\ 8A	.	8e\	p	.	.	.	.
=34	=34	=34	=34	=34	=34	=34	=34
[4.BB\ [4.A	4.cc/]	[4.d#X\	.	(4.cc\]	.	.	.
8BB;<\] 8A]	4ryy	8d#;>\] 8b	.	8b;\)	.	-to	.
8r	.	4ryy	.	8r	.	.	.
8r	8g'/	.	p	8g/	ge-	ko-	.
=35	=35	=35	=35	=35	=35	=35	=35
*	*	*	*	*^	*	*	*
4r	[2.e/	4r	.	[2.e/	2.e\	-liebt!	-cha-	.
8r	.	8r	.	.	.	.	.	.
4r	.	4r	.	.	.	.	.	.
!	!	!	!LO:DY:rj	!	!	!	!	!
8AAA/ 8AA	.	8A\ 8c	pp	.	.	.	.	.
*	*v	*v	*	*	*	*	*	*
=36	=36	=36	=36	=36	=36	=36	=36
[4.EE/ [4.BB	[4.E/ [4.G [4.B 4.e_	.	[4.e/]	[4.e\	.	-li!	.
8EE/] 8BB]	8E/] 8G] 8B] 8e]	.	8e/]	8e\]	.	.	.
8r	8r	.	8r	8ryy	.	.	.
8r	8r	.	8r	8ryy	.	.	.
*	*	*	*v	*v	*	*	*
==	==	==	==	==	==	==
*-	*-	*-	*-	*-	*-	*-
!!!system-decoration: s1{(s2,s3)}
!!!RDF**kern: > = above
!!!RDF**kern: < = below
!!!ENC: Anastazja Marusiak
!!!END: 2021-10-26
!!!ENC: Krzysztof Stępień
!!!END: 2021-10-29
